static/img/cover-bs2-api.svg

<svg width="40" height="40" viewBox="0 0 40 40" fill="none" xmlns="http://www.w3.org/2000/svg">
<g clip-path="url(#clip0_2929_16)">
<path d="M36 0H4C1.79086 0 0 1.79086 0 4V36C0 38.2091 1.79086 40 4 40H36C38.2091 40 40 38.2091 40 36V4C40 1.79086 38.2091 0 36 0Z" fill="#A32343"/>
<path d="M36 0H4C1.79086 0 0 1.79086 0 4V36C0 38.2091 1.79086 40 4 40H36C38.2091 40 40 38.2091 40 36V4C40 1.79086 38.2091 0 36 0Z" fill="white" fill-opacity="0.01"/>
<path d="M16.6667 25L11.6667 20L16.6667 15L17.8542 16.1875L14.0208 20.0208L17.8333 23.8333L16.6667 25ZM23.3333 25L22.1458 23.8125L25.9792 19.9792L22.1667 16.1667L23.3333 15L28.3333 20L23.3333 25Z" fill="white"/>
</g>
<defs>
<clipPath id="clip0_2929_16">
<rect width="40" height="40" fill="white"/>
</clipPath>
</defs>
</svg>

<svg xmlns="http://www.w3.org/2000/svg" width="40" height="40" fill="none" viewBox="0 0 40 40"><g clip-path="url(#a)"><path fill="#a32343" d="M36 0H4a4 4 0 0 0-4 4v32a4 4 0 0 0 4 4h32a4 4 0 0 0 4-4V4a4 4 0 0 0-4-4"/><path fill="#fff" fill-opacity=".01" d="M36 0H4a4 4 0 0 0-4 4v32a4 4 0 0 0 4 4h32a4 4 0 0 0 4-4V4a4 4 0 0 0-4-4"/><path fill="#fff" d="m16.667 25-5-5 5-5 1.187 1.188-3.833 3.833 3.812 3.812zm6.666 0-1.187-1.187 3.833-3.834-3.812-3.812L23.333 15l5 5z"/></g><defs><clipPath id="a"><path fill="#fff" d="M0 0h40v40H0z"/></clipPath></defs></svg>
